X: 09061
T: KENDELL'S HORNPIPE
C: Bob McQuillen 24 Oct 92
B: Bob's Note Book 9 #61
%R: hornpipe, reel
Z: 2018 John Chambers <jc:trillian.mit.edu>
M: C
L: 1/8
K: D
FG \
| AdBd AFDF | Adfa f2ef | gagf edce | dfdB AGFG |
| AdBd AFDF | Adfa f2gf | efec Aceg | f2d2 d2 :|
|: FG \
| AFBF AFDF | AdBd A2FG | AFBF ABde | fafd e2de |
| fafd edBA | dfdB A2dB | Adfa gecd | e2d2 d2 :|
%%begintext align
%% Kendell Kardt used to live here
%% in Peeterborough. He's a real fine guitar player and has a
%% fine singing voice to go along with it. A year or so ago
%% he moved down to Tennessee, where he is playing
%% piano with a group down there. It sounds like fun.
%% He got to picking fiddle tunes out on his guitar, and so I thought
%% he might like to try this one and see how it goes. Best wishes
%% always to you, Kendell.
%%endtext

%%sep 1 1 500

%%sep 1 1 500

